src/app/icon.svg

<svg width="41" height="47" viewBox="0 0 41 47" fill="none" xmlns="http://www.w3.org/2000/svg">
<path d="M40.159 26.8672C40.0949 29.2755 39.5947 31.6523 38.6828 33.8822C34.9167 34.4517 31.3176 35.8262 28.1307 37.9123L27.8355 38.1072C24.8489 40.1188 22.2993 42.7127 20.3392 45.7333L20.0883 46.129C20.0558 46.0817 20.0233 46.0286 19.9938 45.9784C18.0418 42.8932 15.4786 40.2405 12.4621 38.1839C12.3646 38.119 12.2702 38.0511 12.1668 37.9891C9.00695 35.8915 5.43201 34.4998 1.68564 33.9088C0.760313 31.6727 0.251993 29.2862 0.185791 26.8672L0.380653 26.8879C4.59585 27.337 8.64073 28.7953 12.1727 31.1394C12.2702 31.2014 12.3646 31.2693 12.468 31.3342C15.4845 33.3908 18.0477 36.0435 19.9997 39.1287C20.0292 39.1819 20.0617 39.232 20.0942 39.2822L20.3451 38.8837C22.3061 35.8621 24.8556 33.2665 27.8414 31.2516L28.1366 31.0597C31.6802 28.7367 35.7309 27.3007 39.9464 26.8731L40.159 26.8672Z" fill="#173A01"/>
<path d="M39.9169 24.154C39.9169 24.0625 39.8992 23.9709 39.8903 23.8794V23.8587C39.5023 20.4655 38.2447 17.2299 36.2393 14.4652C34.2339 11.7005 31.5487 9.50043 28.4437 8.0779L28.116 7.93028L27.9536 7.86237C27.8414 7.81218 27.7292 7.7679 27.6141 7.72066C27.4989 7.67342 27.3424 7.61142 27.2037 7.55827L26.9999 7.48446L26.625 7.35455L26.1674 7.20103C24.3912 6.64018 22.5439 6.33596 20.6817 6.29758V4.80068C21.0342 4.81062 21.3853 4.75145 21.7151 4.62649C22.0771 4.48964 22.4057 4.27718 22.6791 4.00327C22.9525 3.72937 23.1643 3.40032 23.3005 3.03807C23.0626 3.2421 22.7908 3.40297 22.4975 3.51342C22.0063 3.70164 21.4712 3.7437 20.9566 3.63452C20.4421 3.52534 19.9702 3.26959 19.5978 2.89813C19.2254 2.52667 18.9684 2.05537 18.858 1.54112C18.7475 1.02687 18.7882 0.491629 18.9752 0C18.6145 0.3072 18.3401 0.703125 18.1792 1.14871C18.0182 1.5943 17.9762 2.07416 18.0573 2.54095C18.1383 3.00773 18.3397 3.44531 18.6415 3.81052C18.9433 4.17573 19.3351 4.45595 19.7782 4.62354V6.30348C17.9367 6.34198 16.1098 6.64017 14.3516 7.18922L14.0564 7.28074L13.7051 7.40179L13.5958 7.44017L13.2563 7.56418C13.1264 7.61142 13.0024 7.66161 12.8754 7.7118L12.84 7.72656L12.7278 7.7738C12.6127 7.81809 12.5005 7.86828 12.3853 7.91552C12.2702 7.96276 12.0901 8.04247 11.9543 8.11038C8.86152 9.5409 6.18892 11.7432 4.19353 14.5054C2.19814 17.2676 0.947105 20.4968 0.560752 23.8824V23.9148L0.53418 24.2101V24.4817H0.847139H0.941618H1.12762C4.86887 24.5698 8.53585 25.5442 11.8273 27.3249L11.91 27.3692L11.969 27.4017L12.0605 27.4519C12.0848 27.468 12.1105 27.4818 12.1373 27.4932L12.1727 27.5109L12.3469 27.6113L12.3971 27.6408H12.3824C12.3824 27.6408 17.8355 31.6266 19.7635 34.4315L19.7871 34.4699V34.4876C19.8166 34.5348 19.8491 34.5791 19.8816 34.6263C19.9141 34.6736 19.9141 34.6765 19.9347 34.709L20.2005 35.1164L20.4426 34.6972C20.4507 34.6823 20.4606 34.6684 20.4721 34.6559V34.6322C20.5134 34.5673 20.5547 34.5053 20.602 34.4433C22.5165 31.633 25.0393 29.2898 27.9831 27.5877H28.0274L28.0894 27.5316C28.1159 27.5132 28.1435 27.4964 28.1721 27.4814L28.24 27.443L28.2902 27.4224L28.3108 27.4814C28.3108 27.3958 28.3285 27.3899 28.3404 27.384L28.5145 27.3013C28.5302 27.2875 28.5482 27.2765 28.5677 27.2688C31.8693 25.486 35.5458 24.5097 39.2969 24.4197H39.6453H39.8549V24.1599L39.9169 24.154ZM19.7782 32.9523C17.8491 30.4374 15.4332 28.3367 12.6747 26.7758L12.6304 26.7285C12.8489 20.9624 15.943 16.3359 19.7782 15.9993V32.9523ZM27.7705 26.7758C25.0243 28.3483 22.6161 30.4484 20.6847 32.9552V15.9964C24.5228 16.3359 27.6141 20.9683 27.8266 26.7315L27.7705 26.7758Z" fill="#F38708"/>
</svg>

<svg xmlns="http://www.w3.org/2000/svg" width="41" height="47" fill="none" xmlns:v="https://vecta.io/nano"><path d="M40.159 26.867c-.064 2.408-.564 4.785-1.476 7.015a26.5 26.5 0 0 0-10.552 4.03l-.295.195a26.75 26.75 0 0 0-7.496 7.626l-.251.396a2.58 2.58 0 0 1-.095-.151 26.73 26.73 0 0 0-7.532-7.794l-.295-.195c-3.16-2.098-6.735-3.489-10.481-4.08-.925-2.236-1.434-4.623-1.5-7.042l.195.021a26.38 26.38 0 0 1 11.792 4.252c.098.062.192.13.295.195A26.73 26.73 0 0 1 20 39.129c.029.053.062.103.095.154l.251-.399c1.961-3.022 4.511-5.617 7.496-7.632l.295-.192a26.4 26.4 0 0 1 11.81-4.187l.213-.006z" fill="#173a01"/><path d="M39.917 24.154c0-.091-.018-.183-.027-.275v-.021c-.388-3.393-1.646-6.629-3.651-9.393a19.84 19.84 0 0 0-7.796-6.387l-.328-.148-.162-.068c-.112-.05-.224-.094-.34-.142l-.41-.162L27 7.484l-.375-.13-.458-.154c-1.776-.561-3.623-.865-5.486-.903V4.801a2.7 2.7 0 0 0 1.033-.174 2.72 2.72 0 0 0 1.585-1.588 2.69 2.69 0 0 1-.803.475c-.491.188-1.026.23-1.541.121s-.986-.365-1.359-.736-.629-.843-.74-1.357-.07-1.049.117-1.541c-.361.307-.635.703-.796 1.149s-.203.925-.122 1.392.282.904.584 1.27.694.645 1.137.813v1.68a19.58 19.58 0 0 0-5.427.886l-.295.092-.351.121-.109.038-.34.124c-.13.047-.254.097-.381.148l-.035.015-.112.047c-.115.044-.227.094-.342.142s-.295.127-.431.195A19.86 19.86 0 0 0 .561 23.882v.032l-.027.295v.272h.313.094.186c3.741.088 7.408 1.063 10.7 2.843l.083.044.059.033.091.05c.024.016.05.03.077.041l.035.018.174.1.05.029h-.015s5.453 3.986 7.381 6.791l.024.038v.018c.03.047.062.091.095.139s.033.05.053.083l.266.407.242-.419c.008-.015.018-.029.03-.041v-.024a2.66 2.66 0 0 1 .13-.189 22.65 22.65 0 0 1 7.381-6.856h.044l.062-.056a.78.78 0 0 1 .083-.05l.068-.038.05-.021.021.059c0-.086.018-.091.03-.097l.174-.083c.016-.014.034-.025.053-.033a23.78 23.78 0 0 1 10.729-2.849h.348.21v-.26l.062-.006zm-20.139 8.798a23.6 23.6 0 0 0-7.103-6.177l-.044-.047c.219-5.766 3.313-10.393 7.148-10.729v16.953zm7.992-6.177a24 24 0 0 0-7.086 6.179V15.996c3.838.339 6.929 4.972 7.142 10.735l-.056.044z" fill="#f38708"/></svg>
